material/.icons/material/library-shelves.svg

<svg xmlns="http://www.w3.org/2000/svg" viewBox="0 0 24 24"><path d="M19.5 9V1.5h-3V9h-3V1.5h-3V9h-3V1.5H4.65V9H3v1.5h18V9h-1.5m0 4.5h-3V21h-3v-7.5h-3V21h-3v-7.5H4.65V21H3v1.5h18V21h-1.5v-7.5z"/></svg>

<?xml version="1.0" encoding="UTF-8"?><!DOCTYPE svg PUBLIC "-//W3C//DTD SVG 1.1//EN" "http://www.w3.org/Graphics/SVG/1.1/DTD/svg11.dtd"><svg xmlns="http://www.w3.org/2000/svg" xmlns:xlink="http://www.w3.org/1999/xlink" version="1.1" id="mdi-library-shelves" width="24" height="24" viewBox="0 0 24 24"><path d="M19.5,9V1.5H16.5V9H13.5V1.5H10.5V9H7.5V1.5H4.65V9H3V10.5H21V9H19.5M19.5,13.5H16.5V21H13.5V13.5H10.5V21H7.5V13.5H4.65V21H3V22.5H21V21H19.5V13.5Z" /></svg>
